X: 42
T: Bear Dance Song (b)
C: Anon.
%%abc-version 2.0
%%abcx-abcm2ps-target-version 5.9.1 (29 Sep 2008)
%%abc-creator hum2abc beta
%%abcx-conversion-date 2020/08/10 20:56:09
%%abc-copyright Electronic Copyright 2000 David Huron
%%abc-edited-by David Huron
%%abcx-initial-encoding-date August 28, 2000
%%humdrum-veritas 926742358
%%humdrum-veritas-data 3228157403
%%linebreak <none>
%%barnumbers 0
L: 1/8
M: 2/4
Q: 1/4=84
K: A clef=bass
A,> A, A, A,/ C/ | 
B,> A, A, F,/ z/ | 
A, A, A, z | 
A,2F, F,/ z/ | 
A, A, A, z | 
A, A, F, F,/ z/ | 
A, A, A, z | 
A,< E C/ B,3/ | 
C< B, A,/ F,/ z | 
A,< A, A, z | 
A,< A, A, A,/ C/ | 
B,< A, A,/ F,/ z | 
A,< A, A, z[M:3/4] | 
A,< E C< B, A,/ F,/ z[M:2/4] | 
A,< A, A, z | 
A,< A, F,/ F,/ z | 
A,< A, A, z |]  


